icons/beats.svg

<?xml version="1.0" encoding="UTF-8"?>
<svg width="256px" height="328px" viewBox="0 0 256 328" version="1.1" xmlns="http://www.w3.org/2000/svg" xmlns:xlink="http://www.w3.org/1999/xlink" preserveAspectRatio="xMidYMid">
    <g>
        <path d="M208.26192,138.798398 C193.570759,177.355868 156.354365,204.802427 112.638908,204.802427 L112.638908,204.802427 L0.000606822007,204.802427 L0.000606822007,122.881456 L0.000606822007,0 L112.638908,0 C169.200787,0 215.040121,45.8514708 215.040121,102.401214 C215.040121,115.241567 212.576424,127.475099 208.26192,138.798398 Z" fill="#0077CC"></path>
        <path d="M208.26192,138.798398 C192.436002,128.773698 173.727679,122.881456 153.599393,122.881456 L0.000606822007,122.881456 L0.000606822007,204.802427 L112.638908,204.802427 C156.354365,204.802427 193.570759,177.355868 208.26192,138.798398" fill="#343741"></path>
        <path d="M232.315737,159.81143 C210.864579,204.340029 165.28011,235.148382 112.638301,235.148382 L0,235.148382 L0,327.688738 L153.598786,327.688738 C210.160666,327.688738 256,281.837267 256,225.287525 C256,200.377481 247.097921,177.560974 232.315737,159.81143" fill="#00BFB3"></path>
    </g>
</svg>

<svg xmlns="http://www.w3.org/2000/svg" viewBox="0 0 256 327.689">
  <path fill="#07c" d="M208.262 138.798c-14.691 38.558-51.908 66.004-95.623 66.004H0V0h112.638C169.2 0 215.04 45.851 215.04 102.401c0 12.84-2.464 25.074-6.778 36.397z"/>
  <path fill="#343741" d="M208.262 138.798c-15.826-10.024-34.534-15.917-54.663-15.917H.001v81.921h112.638c43.715 0 80.932-27.446 95.623-66.004"/>
  <path fill="#00bfb3" d="M232.316 159.811c-21.451 44.529-67.036 75.337-119.678 75.337H0v92.54h153.599c56.562 0 102.401-45.85 102.401-102.4 0-24.91-8.902-47.727-23.684-65.477"/>
</svg>
